X:1
T:Kobe, 11.11.11.11
T:Kobe, 11.11.11.11
T:James Ramsey Murray, 1881
T:Public Domain Courtesy of the Cyber Hymnal™
C:James Ramsey Murray, 1881
Z:Public Domain
Z:Courtesy of the Cyber Hymnal™
%%score ( 1 2 ) ( 3 4 )
L:1/8
Q:1/4=95
M:4/4
K:C
V:1 treble 
V:2 treble 
V:3 bass 
V:4 bass 
V:1
 [EG] | [EG]2 [FA][DB] [Ec]2 [EG][CE] | [CA]2 [CG][B,F] [CE]3 [CE] | %3
 [DF]2 [DG][DF] [CE]2 [B,G][^CA] | [DB]2 [DB][CA] [B,G]3 G | [Fd]2 [FA][FB] [Ec]2 [EG][Gc] | %6
 [Fd]2 [FA][FB] [Ec]3 [Gc] | [Ac]2 [GB][FA] [EG]2 [Gc][Ad] | [Ge]2 [Fd][FB] [Ec]3 |] %9
V:2
 x | x8 | x8 | x8 | x7 G | x8 | x8 | x8 | x7 |] %9
V:3
 [C,C] | [C,C]2 [C,C][C,G,] [C,G,]2 [C,C][C,C] | [F,C]2 [E,G,][D,G,] [C,G,]3 [C,G,] | %3
 [G,,G,]2 [B,,G,][G,,G,] [C,G,]2 [E,G,][E,G,] | [D,G,]2 [D,^F,][D,F,] G,3 G, | %5
 [G,B,]2 [G,D][G,D] [C,C]2 [C,C][E,C] | [G,B,]2 [G,D][G,D] [C,C]3 [E,C] | %7
 [F,C]2 [F,C][F,C] [C,C]2 [E,C][F,C] | [G,C]2 [G,B,][G,D] [C,C]3 |] %9
V:4
 x | x8 | x8 | x8 | x4 G,3 G, | x8 | x8 | x8 | x7 |] %9

